24x24/apps/gftp.svg

<svg xmlns="http://www.w3.org/2000/svg" width="24" height="24" version="1">
 <rect style="fill:#84b126" width="20" height="20" x="2" y="2" rx="1" ry="1"/>
 <path style="opacity:0.2" d="m 11,15.5 0,2 -5,0 0,2 12,0 0,-2 -5,0 0,-2 -2,0 z"/>
 <path style="opacity:0.2;fill:#f4f4f7" d="M 3,2 C 2.446,2 2,2.446 2,3 l 0,0.5 c 0,-0.554 0.446,-1 1,-1 l 18,0 c 0.554,0 1,0.446 1,1 L 22,3 C 22,2.446 21.554,2 21,2 L 3,2 Z"/>
 <path style="opacity:0.2" d="m 3,22.5 c -0.554,0 -1,-0.446 -1,-1 L 2,21 c 0,0.554 0.446,1 1,1 l 18,0 c 0.554,0 1,-0.446 1,-1 l 0,0.5 c 0,0.554 -0.446,1 -1,1 l -18,0 z"/>
 <rect style="fill:#17191e" width="2" height="3" x="11" y="15"/>
 <rect style="fill:#17191e" width="12" height="2" x="6" y="17"/>
 <circle style="opacity:0.2" cx="5" cy="18.5" r="2"/>
 <circle style="opacity:0.2" cx="12" cy="18.5" r="2"/>
 <circle style="opacity:0.2" cx="19" cy="18.5" r="2"/>
 <circle style="fill:#f4f4f7" cx="5" cy="18" r="2"/>
 <circle style="fill:#f4f4f7" cx="12" cy="18" r="2"/>
 <circle style="fill:#f4f4f7" cx="19" cy="18" r="2"/>
 <path style="opacity:0.2" d="M 8.043,5.5 C 7.4649,5.5 7,5.9649 7,6.543 l 0,7.914 C 7,15.035 7.4649,15.5 8.043,15.5 l 7.9141,0 c 0.578,0 1.043,-0.465 1.043,-1.043 l 0,-7.914 c 0,-0.5781 -0.465,-1.043 -1.043,-1.043 l -7.9141,0 z m 0.957,2 6,0 0,6 -6,0 0,-6 z"/>
 <path style="fill:#5c5c5c" d="M 8.043,5 C 7.4649,5 7,5.4649 7,6.043 l 0,7.914 C 7,14.535 7.4649,15 8.043,15 l 7.9141,0 c 0.578,0 1.043,-0.465 1.043,-1.043 l 0,-7.914 C 17.0001,5.4649 16.5351,5 15.9571,5 L 8.0431,5 Z M 9,7 l 6,0 0,6 -6,0 0,-6 z"/>
</svg>

<svg xmlns="http://www.w3.org/2000/svg" width="24" height="24" version="1"><rect style="fill:#84b126" width="20" height="20" x="2" y="2" rx="1" ry="1"/><path style="opacity:.2" d="M11 15.5v2H6v2h12v-2h-5v-2h-2z"/><path style="opacity:.2;fill:#f4f4f7" d="M3 2c-.554 0-1 .446-1 1v.5c0-.554.446-1 1-1h18c.554 0 1 .446 1 1V3c0-.554-.446-1-1-1H3z"/><path style="opacity:.2" d="M3 22.5c-.554 0-1-.446-1-1V21c0 .554.446 1 1 1h18c.554 0 1-.446 1-1v.5c0 .554-.446 1-1 1H3z"/><path style="fill:#17191e" d="M11 15h2v3h-2z"/><path style="fill:#17191e" d="M6 17h12v2H6z"/><circle style="opacity:.2" cx="5" cy="18.5" r="2"/><circle style="opacity:.2" cx="12" cy="18.5" r="2"/><circle style="opacity:.2" cx="19" cy="18.5" r="2"/><circle style="fill:#f4f4f7" cx="5" cy="18" r="2"/><circle style="fill:#f4f4f7" cx="12" cy="18" r="2"/><circle style="fill:#f4f4f7" cx="19" cy="18" r="2"/><path style="opacity:.2" d="M8.043 5.5A1.04 1.04 0 0 0 7 6.543v7.914A1.04 1.04 0 0 0 8.043 15.5h7.914A1.04 1.04 0 0 0 17 14.457V6.543A1.04 1.04 0 0 0 15.957 5.5H8.043zM9 7.5h6v6H9v-6z"/><path style="fill:#5c5c5c" d="M8.043 5A1.04 1.04 0 0 0 7 6.043v7.914A1.04 1.04 0 0 0 8.043 15h7.914A1.04 1.04 0 0 0 17 13.957V6.043A1.04 1.04 0 0 0 15.957 5H8.043zM9 7h6v6H9V7z"/></svg>
